packages/symbols/svgs/outline/arrow-left-outline.svg

<svg width="24" height="24" viewBox="0 0 24 24" fill="none" xmlns="http://www.w3.org/2000/svg">
<path fill-rule="evenodd" clip-rule="evenodd" d="M2 12C2 11.4477 2.44772 11 3 11L22 11C22.5523 11 23 11.4477 23 12C23 12.5523 22.5523 13 22 13L3 13C2.44772 13 2 12.5523 2 12Z" fill="black"/>
<path fill-rule="evenodd" clip-rule="evenodd" d="M9.70711 4.29289C10.0976 4.68342 10.0976 5.31658 9.70711 5.70711L3.41421 12L9.70711 18.2929C10.0976 18.6834 10.0976 19.3166 9.70711 19.7071C9.31658 20.0976 8.68342 20.0976 8.29289 19.7071L1.29289 12.7071C0.902369 12.3166 0.902369 11.6834 1.29289 11.2929L8.29289 4.29289C8.68342 3.90237 9.31658 3.90237 9.70711 4.29289Z" fill="black"/>
</svg>

<svg width="24" height="24" viewBox="0 0 24 24" xmlns="http://www.w3.org/2000/svg"><path fill-rule="evenodd" clip-rule="evenodd" d="M2 12a1 1 0 0 1 1-1h19a1 1 0 1 1 0 2H3a1 1 0 0 1-1-1Z"/><path fill-rule="evenodd" clip-rule="evenodd" d="M9.707 4.293a1 1 0 0 1 0 1.414L3.414 12l6.293 6.293a1 1 0 0 1-1.414 1.414l-7-7a1 1 0 0 1 0-1.414l7-7a1 1 0 0 1 1.414 0Z"/></svg>
